www/img/onboarding-push-notifications.svg

<?xml version="1.0" encoding="UTF-8" standalone="no"?>
<svg width="247px" height="248px" viewBox="0 0 247 248" version="1.1" xmlns="http://www.w3.org/2000/svg" xmlns:xlink="http://www.w3.org/1999/xlink">
    <!-- Generator: Sketch 39.1 (31720) - http://www.bohemiancoding.com/sketch -->
    <title>Group 7</title>
    <desc>Created with Sketch.</desc>
    <defs>
        <linearGradient x1="50%" y1="0%" x2="50%" y2="89.4673583%" id="linearGradient-1">
            <stop stop-color="#3950B5" offset="0%"></stop>
            <stop stop-color="#162360" offset="100%"></stop>
        </linearGradient>
        <rect id="path-2" x="0" y="0" width="122" height="34"></rect>
        <mask id="mask-3" maskContentUnits="userSpaceOnUse" maskUnits="objectBoundingBox" x="0" y="0" width="122" height="34" fill="white">
            <use xlink:href="#path-2"></use>
        </mask>
    </defs>
    <g id="Onboarding" stroke="none" stroke-width="1" fill="none" fill-rule="evenodd">
        <g id="0.4---Allow-Push-Notifications" transform="translate(-64.000000, -209.000000)">
            <g id="Group-7" transform="translate(64.000000, 210.000000)">
                <path d="M123.5,247 C191.707167,247 247,191.707167 247,123.5 C247,55.2928334 191.707167,1.42108547e-14 123.5,1.42108547e-14 C55.2928334,1.42108547e-14 1.42108547e-14,55.2928334 1.42108547e-14,123.5 C1.42108547e-14,191.707167 55.2928334,247 123.5,247 Z" id="Oval-2" fill="url(#linearGradient-1)" opacity="0.300000012"></path>
                <g id="Phone" transform="translate(62.000000, 0.000000)" stroke="#647CE8" stroke-width="2">
                    <rect id="Combined-Shape" fill="#253377" x="0" y="0" width="122.16932" height="220.464844" rx="8"></rect>
                    <path d="M0.636298539,187 L121.533021,187" id="Line" stroke-linecap="square"></path>
                    <path d="M50.2675846,203 L73.174332,203" id="Line" stroke-linecap="square"></path>
                </g>
                <ellipse id="Oval-2" stroke="#647CE8" stroke-width="2" fill-opacity="0.41907269" fill="#5462B1" opacity="0.945615695" cx="169" cy="57.4884375" rx="47" ry="44.4884375"></ellipse>
                <g id="Group-3" transform="translate(62.000000, 33.000000)">
                    <path d="M12.7105489,19.5 L50.4911698,19.5" id="Line" stroke="#12E5B6" stroke-width="3" stroke-linecap="square"></path>
                    <path d="M21.96,10.4166666 L43.0026407,10.4166666" id="Line" stroke="#12E5B6" stroke-width="3" stroke-linecap="square"></path>
                    <use id="Rectangle-3" stroke="#677AE7" mask="url(#mask-3)" stroke-width="2" xlink:href="#path-2"></use>
                </g>
                <g id="android-notifications-none" opacity="0.900000036" transform="translate(144.642407, 28.000000)" fill="#FFFFFF">
                    <path d="M24.5218837,9.5815024 C25.5031747,9.5815024 27.8345547,10.1736779 27.8345547,10.1736779 C34.1505329,11.5548918 38.5961981,17.1067187 38.5961981,23.375 L38.5961981,38.5 L38.5961981,40.2467788 L39.8875454,41.4848077 L40.9665083,42.5190986 L7.80017568,42.5190986 L8.87913857,41.4848077 L10.1704859,40.2467788 L10.1704859,38.5 L10.1704859,23.375 C10.1704859,17.106851 14.616151,11.5548918 20.9321293,10.1736779 C20.9321293,10.1736779 23.4318375,9.5815024 24.2448003,9.5815024 L24.5218837,9.5815024 Z M24.383342,0 C21.9447307,0 20.0803748,1.78723558 20.0803748,4.125 L20.0803748,6.04986779 C11.9043355,7.83776442 5.73715099,14.9875 5.73715099,23.375 L5.73715099,38.5 L-6.82121026e-13,44 L-6.82121026e-13,46.75 L48.766684,46.75 L48.766684,44 L43.029533,38.5 L43.029533,23.375 C43.029533,14.9875 36.8622099,7.83776442 28.6863091,6.04986779 L28.6863091,4.125 C28.6863091,1.78723558 26.8219533,0 24.383342,0 L24.383342,0 L24.383342,0 Z M30.120493,49.5 L18.6460524,49.5 C18.6460524,52.5251322 21.2275002,55 24.383342,55 C27.5391837,55 30.120493,52.5251322 30.120493,49.5 L30.120493,49.5 L30.120493,49.5 Z" id="Shape"></path>
                </g>
            </g>
        </g>
    </g>
</svg>

<?xml version="1.0" encoding="utf-8"?>
<!-- Generator: Adobe Illustrator 21.1.0, SVG Export Plug-In . SVG Version: 6.00 Build 0)  -->
<svg version="1.1" id="Layer_1" xmlns="http://www.w3.org/2000/svg" xmlns:xlink="http://www.w3.org/1999/xlink" x="0px" y="0px"
	 viewBox="0 0 247 248" style="enable-background:new 0 0 247 248;" xml:space="preserve">
<style type="text/css">
	.st0{opacity:0.3;fill:#523971;enable-background:new    ;}
	.st1{enable-background:new    ;}
	.st2{fill:#523971;stroke:#7D5AB5;stroke-width:2;}
	.st3{display:none;}
	.st4{display:inline;opacity:0.65;fill:#523971;}
	.st5{display:inline;fill:none;stroke:#7D5AB5;stroke-width:2;}
	.st6{filter:url(#Adobe_OpacityMaskFilter);}
	.st7{fill:#FFFFFF;}
	.st8{mask:url(#mask-3);fill:#523971;stroke:#7D5AB5;stroke-width:2;}
	.st9{fill:#FFFFFF;stroke:#FFFFFF;stroke-width:2;}
	.st10{opacity:0.9456;fill:#523971;fill-opacity:0.4191;stroke:#7D5AB5;stroke-width:2;enable-background:new    ;}
	.st11{opacity:0.9;}
</style>
<title>push-notifications</title>
<desc>Created with Sketch.</desc>
<g id="Page-1">
	<g id="push-notifications" transform="translate(0.000000, 1.000000)">
		<g id="Onboarding">
			<g id="_x30_.4---Allow-Push-Notifications">
				<g id="Group-7">
					<path id="Oval-2" class="st0" d="M123.5,247c68.2,0,123.5-55.3,123.5-123.5S191.7,0,123.5,0S0,55.3,0,123.5S55.3,247,123.5,247
						z"/>
					<g id="Phone" transform="translate(62.000000, 0.000000)" class="st1">
						<g>
							<path id="Combined-Shape_18_" class="st2" d="M10.1,0h101.5c5.3,0,9.6,4.3,9.6,9.6v201.3c0,5.3-4.3,9.6-9.6,9.6H10.1
								c-5.3,0-9.6-4.3-9.6-9.6V9.6C0.6,4.3,4.8,0,10.1,0z"/>
							<g id="Combined-Shape_17_" class="st3">
								<path class="st4" d="M8,0h106.2c4.4,0,8,3.6,8,8v204.5c0,4.4-3.6,8-8,8H8c-4.4,0-8-3.6-8-8V8C0,3.6,3.6,0,8,0z"/>
								<path class="st5" d="M8,0h106.2c4.4,0,8,3.6,8,8v204.5c0,4.4-3.6,8-8,8H8c-4.4,0-8-3.6-8-8V8C0,3.6,3.6,0,8,0z"/>
							</g>
							<path id="Line_19_" class="st2" d="M0.6,187h120.9"/>
							<path id="Line_18_" class="st2" d="M50.3,203h22.9"/>
						</g>
					</g>
					<g id="Group-3" transform="translate(62.000000, 33.000000)">
						<g id="Rectangle-3">
							<g id="path-2-Clipped">
								<g id="path-2_1_">
								</g>
								<defs>
									<filter id="Adobe_OpacityMaskFilter" filterUnits="userSpaceOnUse" x="-1" y="-1" width="124" height="36">
										<feColorMatrix  type="matrix" values="1 0 0 0 0  0 1 0 0 0  0 0 1 0 0  0 0 0 1 0"/>
									</filter>
								</defs>
								<mask maskUnits="userSpaceOnUse" x="-1" y="-1" width="124" height="36" id="mask-3">
									<g class="st6">
										<rect id="path-2" class="st7" width="122" height="34"/>
									</g>
								</mask>
								<rect id="path-2_2_" class="st8" width="122" height="34"/>
							</g>
						</g>
						<path id="Line_2_" class="st9" d="M12.7,19.5h37.8"/>
						<path id="Line_3_" class="st9" d="M22,10.4h21"/>
					</g>
					<ellipse id="Oval-2_1_" class="st10" cx="169" cy="57.5" rx="47" ry="44.5"/>
					<g id="android-notifications-none" transform="translate(144.642407, 28.000000)" class="st11">
						<path id="Shape" class="st7" d="M24.5,9.6c1,0,3.3,0.6,3.3,0.6c6.3,1.4,10.8,6.9,10.8,13.2v15.1v1.7l1.3,1.2l1.1,1H7.8l1.1-1
							l1.3-1.2v-1.7V23.4c0-6.3,4.4-11.8,10.8-13.2c0,0,2.5-0.6,3.3-0.6H24.5z M24.4,0c-2.4,0-4.3,1.8-4.3,4.1V6
							C11.9,7.8,5.7,15,5.7,23.4v15.1L0,44v2.8h48.8V44L43,38.5V23.4C43,15,36.9,7.8,28.7,6V4.1C28.7,1.8,26.8,0,24.4,0L24.4,0
							L24.4,0z M30.1,49.5H18.6c0,3,2.6,5.5,5.7,5.5S30.1,52.5,30.1,49.5L30.1,49.5L30.1,49.5z"/>
					</g>
				</g>
			</g>
		</g>
	</g>
</g>
</svg>
